images/50909666.svg

<?xml version="1.0" encoding="UTF-8"?>
<svg xmlns="http://www.w3.org/2000/svg" xmlns:xlink="http://www.w3.org/1999/xlink" width="300pt" height="300pt" viewBox="0 0 300 300" version="1.1">
<defs>
<g>
<symbol overflow="visible" id="glyph0-0">
<path style="stroke:none;" d="M 0.453125 1.59375 L 0.453125 -6.34375 L 4.953125 -6.34375 L 4.953125 1.59375 Z M 0.953125 1.09375 L 4.453125 1.09375 L 4.453125 -5.84375 L 0.953125 -5.84375 Z M 0.953125 1.09375 "/>
</symbol>
<symbol overflow="visible" id="glyph0-1">
<path style="stroke:none;" d="M 1.765625 -3.140625 L 1.765625 -0.734375 L 3.1875 -0.734375 C 3.664062 -0.734375 4.019531 -0.832031 4.25 -1.03125 C 4.476562 -1.226562 4.59375 -1.53125 4.59375 -1.9375 C 4.59375 -2.34375 4.476562 -2.644531 4.25 -2.84375 C 4.019531 -3.039062 3.664062 -3.140625 3.1875 -3.140625 Z M 1.765625 -5.828125 L 1.765625 -3.859375 L 3.078125 -3.859375 C 3.515625 -3.859375 3.835938 -3.9375 4.046875 -4.09375 C 4.265625 -4.257812 4.375 -4.507812 4.375 -4.84375 C 4.375 -5.175781 4.265625 -5.421875 4.046875 -5.578125 C 3.835938 -5.742188 3.515625 -5.828125 3.078125 -5.828125 Z M 0.890625 -6.5625 L 3.15625 -6.5625 C 3.832031 -6.5625 4.351562 -6.421875 4.71875 -6.140625 C 5.082031 -5.859375 5.265625 -5.457031 5.265625 -4.9375 C 5.265625 -4.539062 5.171875 -4.222656 4.984375 -3.984375 C 4.796875 -3.742188 4.519531 -3.59375 4.15625 -3.53125 C 4.59375 -3.4375 4.929688 -3.238281 5.171875 -2.9375 C 5.410156 -2.644531 5.53125 -2.28125 5.53125 -1.84375 C 5.53125 -1.25 5.332031 -0.789062 4.9375 -0.46875 C 4.539062 -0.15625 3.972656 0 3.234375 0 L 0.890625 0 Z M 0.890625 -6.5625 "/>
</symbol>
<symbol overflow="visible" id="glyph0-2">
<path style="stroke:none;" d="M 3.703125 -4.171875 C 3.609375 -4.222656 3.507812 -4.257812 3.40625 -4.28125 C 3.300781 -4.300781 3.179688 -4.3125 3.046875 -4.3125 C 2.585938 -4.3125 2.234375 -4.160156 1.984375 -3.859375 C 1.742188 -3.566406 1.625 -3.144531 1.625 -2.59375 L 1.625 0 L 0.8125 0 L 0.8125 -4.921875 L 1.625 -4.921875 L 1.625 -4.15625 C 1.800781 -4.457031 2.023438 -4.679688 2.296875 -4.828125 C 2.566406 -4.972656 2.894531 -5.046875 3.28125 -5.046875 C 3.34375 -5.046875 3.40625 -5.039062 3.46875 -5.03125 C 3.539062 -5.019531 3.617188 -5.007812 3.703125 -5 Z M 3.703125 -4.171875 "/>
</symbol>
<symbol overflow="visible" id="glyph0-3">
<path style="stroke:none;" d="M 3.546875 -5.953125 C 2.898438 -5.953125 2.382812 -5.710938 2 -5.234375 C 1.625 -4.753906 1.4375 -4.101562 1.4375 -3.28125 C 1.4375 -2.445312 1.625 -1.789062 2 -1.3125 C 2.382812 -0.832031 2.898438 -0.59375 3.546875 -0.59375 C 4.191406 -0.59375 4.703125 -0.832031 5.078125 -1.3125 C 5.453125 -1.789062 5.640625 -2.445312 5.640625 -3.28125 C 5.640625 -4.101562 5.453125 -4.753906 5.078125 -5.234375 C 4.703125 -5.710938 4.191406 -5.953125 3.546875 -5.953125 Z M 3.546875 -6.6875 C 4.460938 -6.6875 5.195312 -6.375 5.75 -5.75 C 6.300781 -5.132812 6.578125 -4.3125 6.578125 -3.28125 C 6.578125 -2.238281 6.300781 -1.410156 5.75 -0.796875 C 5.195312 -0.179688 4.460938 0.125 3.546875 0.125 C 2.617188 0.125 1.878906 -0.179688 1.328125 -0.796875 C 0.773438 -1.410156 0.5 -2.238281 0.5 -3.28125 C 0.5 -4.3125 0.773438 -5.132812 1.328125 -5.75 C 1.878906 -6.375 2.617188 -6.6875 3.546875 -6.6875 Z M 3.546875 -6.6875 "/>
</symbol>
<symbol overflow="visible" id="glyph0-4">
<path style="stroke:none;" d="M 0.890625 -6.5625 L 2.078125 -6.5625 L 4.984375 -1.078125 L 4.984375 -6.5625 L 5.84375 -6.5625 L 5.84375 0 L 4.65625 0 L 1.75 -5.484375 L 1.75 0 L 0.890625 0 Z M 0.890625 -6.5625 "/>
</symbol>
<symbol overflow="visible" id="glyph0-5">
<path style="stroke:none;" d="M 5.796875 -6.0625 L 5.796875 -5.125 C 5.492188 -5.394531 5.171875 -5.597656 4.828125 -5.734375 C 4.492188 -5.878906 4.140625 -5.953125 3.765625 -5.953125 C 3.015625 -5.953125 2.4375 -5.722656 2.03125 -5.265625 C 1.632812 -4.804688 1.4375 -4.144531 1.4375 -3.28125 C 1.4375 -2.414062 1.632812 -1.753906 2.03125 -1.296875 C 2.4375 -0.835938 3.015625 -0.609375 3.765625 -0.609375 C 4.140625 -0.609375 4.492188 -0.675781 4.828125 -0.8125 C 5.171875 -0.945312 5.492188 -1.15625 5.796875 -1.4375 L 5.796875 -0.5 C 5.484375 -0.289062 5.15625 -0.132812 4.8125 -0.03125 C 4.46875 0.0703125 4.097656 0.125 3.703125 0.125 C 2.710938 0.125 1.929688 -0.175781 1.359375 -0.78125 C 0.785156 -1.394531 0.5 -2.226562 0.5 -3.28125 C 0.5 -4.332031 0.785156 -5.160156 1.359375 -5.765625 C 1.929688 -6.378906 2.710938 -6.6875 3.703125 -6.6875 C 4.097656 -6.6875 4.46875 -6.632812 4.8125 -6.53125 C 5.164062 -6.425781 5.492188 -6.269531 5.796875 -6.0625 Z M 5.796875 -6.0625 "/>
</symbol>
<symbol overflow="visible" id="glyph0-6">
<path style="stroke:none;" d="M 0.84375 -6.84375 L 1.65625 -6.84375 L 1.65625 0 L 0.84375 0 Z M 0.84375 -6.84375 "/>
</symbol>
<symbol overflow="visible" id="glyph0-7">
<path style="stroke:none;" d="M 0.890625 -6.5625 L 4.65625 -6.5625 L 4.65625 -5.8125 L 1.765625 -5.8125 L 1.765625 -3.875 L 4.375 -3.875 L 4.375 -3.140625 L 1.765625 -3.140625 L 1.765625 0 L 0.890625 0 Z M 0.890625 -6.5625 "/>
</symbol>
</g>
</defs>
<g id="surface18413">
<rect x="0" y="0" width="300" height="300" style="fill:rgb(100%,100%,100%);fill-opacity:1;stroke:none;"/>
<path style="fill:none;stroke-width:1.2;stroke-linecap:butt;stroke-linejoin:miter;stroke:rgb(50%,30%,10%);stroke-opacity:1;stroke-miterlimit:10;" d="M 165.148438 176.71875 L 157.515625 170.074219 "/>
<path style="fill:none;stroke-width:1.2;stroke-linecap:butt;stroke-linejoin:miter;stroke:rgb(0%,0%,0%);stroke-opacity:1;stroke-miterlimit:10;" d="M 157.515625 170.074219 L 149.882812 163.429688 "/>
<path style=" stroke:none;fill-rule:nonzero;fill:rgb(100%,100%,100%);fill-opacity:1;" d="M 160.148438 171.21875 L 171.148438 171.21875 L 171.148438 182.21875 L 160.148438 182.21875 Z M 160.148438 171.21875 "/>
<g style="fill:rgb(50%,30%,10%);fill-opacity:1;">
  <use xlink:href="#glyph0-1" x="160.148438" y="179.881836"/>
  <use xlink:href="#glyph0-2" x="166.547852" y="179.881836"/>
</g>
<path style="fill:none;stroke-width:1.2;stroke-linecap:butt;stroke-linejoin:miter;stroke:rgb(0%,0%,0%);stroke-opacity:1;stroke-miterlimit:10;" d="M 149.882812 163.429688 L 130.734375 170.007812 "/>
<path style="fill:none;stroke-width:1.2;stroke-linecap:butt;stroke-linejoin:miter;stroke:rgb(0%,0%,0%);stroke-opacity:1;stroke-miterlimit:10;" d="M 149.882812 163.429688 L 153.757812 143.5625 "/>
<path style="fill:none;stroke-width:1.2;stroke-linecap:butt;stroke-linejoin:miter;stroke:rgb(0%,0%,0%);stroke-opacity:1;stroke-miterlimit:10;" d="M 145.59375 160.53125 L 148.695312 144.636719 "/>
<path style="fill:none;stroke-width:1.2;stroke-linecap:butt;stroke-linejoin:miter;stroke:rgb(0%,0%,0%);stroke-opacity:1;stroke-miterlimit:10;" d="M 128.398438 169.550781 L 126.460938 179.484375 "/>
<path style="fill:none;stroke-width:1.2;stroke-linecap:butt;stroke-linejoin:miter;stroke:rgb(100%,0%,0%);stroke-opacity:1;stroke-miterlimit:10;" d="M 126.460938 179.484375 L 124.523438 189.417969 "/>
<path style="fill:none;stroke-width:1.2;stroke-linecap:butt;stroke-linejoin:miter;stroke:rgb(0%,0%,0%);stroke-opacity:1;stroke-miterlimit:10;" d="M 133.074219 170.460938 L 131.136719 180.394531 "/>
<path style="fill:none;stroke-width:1.2;stroke-linecap:butt;stroke-linejoin:miter;stroke:rgb(100%,0%,0%);stroke-opacity:1;stroke-miterlimit:10;" d="M 131.136719 180.394531 L 129.195312 190.332031 "/>
<path style="fill:none;stroke-width:1.2;stroke-linecap:butt;stroke-linejoin:miter;stroke:rgb(0%,0%,0%);stroke-opacity:1;stroke-miterlimit:10;" d="M 130.734375 170.007812 L 123.101562 163.359375 "/>
<path style="fill:none;stroke-width:1.2;stroke-linecap:butt;stroke-linejoin:miter;stroke:rgb(0%,0%,100%);stroke-opacity:1;stroke-miterlimit:10;" d="M 123.101562 163.359375 L 115.46875 156.714844 "/>
<path style=" stroke:none;fill-rule:nonzero;fill:rgb(100%,100%,100%);fill-opacity:1;" d="M 122.859375 184.375 L 130.859375 184.375 L 130.859375 195.375 L 122.859375 195.375 Z M 122.859375 184.375 "/>
<g style="fill:rgb(100%,0%,0%);fill-opacity:1;">
  <use xlink:href="#glyph0-3" x="122.859375" y="193.038086"/>
</g>
<path style="fill:none;stroke-width:1.2;stroke-linecap:butt;stroke-linejoin:miter;stroke:rgb(0%,0%,100%);stroke-opacity:1;stroke-miterlimit:10;" d="M 115.46875 156.714844 L 117.40625 146.78125 "/>
<path style="fill:none;stroke-width:1.2;stroke-linecap:butt;stroke-linejoin:miter;stroke:rgb(0%,0%,0%);stroke-opacity:1;stroke-miterlimit:10;" d="M 117.40625 146.78125 L 119.34375 136.847656 "/>
<path style="fill:none;stroke-width:1.2;stroke-linecap:butt;stroke-linejoin:miter;stroke:rgb(0%,0%,100%);stroke-opacity:1;stroke-miterlimit:10;" d="M 115.46875 156.714844 L 105.894531 160.003906 "/>
<path style="fill:none;stroke-width:1.2;stroke-linecap:butt;stroke-linejoin:miter;stroke:rgb(0%,0%,0%);stroke-opacity:1;stroke-miterlimit:10;" d="M 105.894531 160.003906 L 96.324219 163.292969 "/>
<path style=" stroke:none;fill-rule:nonzero;fill:rgb(100%,100%,100%);fill-opacity:1;" d="M 112.46875 151.214844 L 119.46875 151.214844 L 119.46875 162.214844 L 112.46875 162.214844 Z M 112.46875 151.214844 "/>
<g style="fill:rgb(0%,0%,100%);fill-opacity:1;">
  <use xlink:href="#glyph0-4" x="112.46875" y="159.87793"/>
</g>
<path style="fill:none;stroke-width:1.2;stroke-linecap:butt;stroke-linejoin:miter;stroke:rgb(0%,0%,0%);stroke-opacity:1;stroke-miterlimit:10;" d="M 119.34375 136.847656 L 138.488281 130.269531 "/>
<path style="fill:none;stroke-width:1.2;stroke-linecap:butt;stroke-linejoin:miter;stroke:rgb(0%,0%,0%);stroke-opacity:1;stroke-miterlimit:10;" d="M 122.804688 140.691406 L 138.121094 135.429688 "/>
<path style="fill:none;stroke-width:1.2;stroke-linecap:butt;stroke-linejoin:miter;stroke:rgb(0%,0%,0%);stroke-opacity:1;stroke-miterlimit:10;" d="M 138.488281 130.269531 L 153.757812 143.5625 "/>
<path style="fill:none;stroke-width:1.2;stroke-linecap:butt;stroke-linejoin:miter;stroke:rgb(0%,0%,0%);stroke-opacity:1;stroke-miterlimit:10;" d="M 153.757812 143.5625 L 163.328125 140.273438 "/>
<path style="fill:none;stroke-width:1.2;stroke-linecap:butt;stroke-linejoin:miter;stroke:rgb(100%,0%,0%);stroke-opacity:1;stroke-miterlimit:10;" d="M 163.328125 140.273438 L 172.902344 136.984375 "/>
<path style="fill:none;stroke-width:1.2;stroke-linecap:butt;stroke-linejoin:miter;stroke:rgb(100%,0%,0%);stroke-opacity:1;stroke-miterlimit:10;" d="M 172.902344 136.984375 L 180.535156 143.628906 "/>
<path style="fill:none;stroke-width:1.2;stroke-linecap:butt;stroke-linejoin:miter;stroke:rgb(0%,0%,0%);stroke-opacity:1;stroke-miterlimit:10;" d="M 180.535156 143.628906 L 188.171875 150.273438 "/>
<path style=" stroke:none;fill-rule:nonzero;fill:rgb(100%,100%,100%);fill-opacity:1;" d="M 168.902344 131.484375 L 176.902344 131.484375 L 176.902344 142.484375 L 168.902344 142.484375 Z M 168.902344 131.484375 "/>
<g style="fill:rgb(100%,0%,0%);fill-opacity:1;">
  <use xlink:href="#glyph0-3" x="168.902344" y="140.147461"/>
</g>
<path style="fill:none;stroke-width:1.2;stroke-linecap:butt;stroke-linejoin:miter;stroke:rgb(0%,0%,0%);stroke-opacity:1;stroke-miterlimit:10;" d="M 188.171875 150.273438 L 207.316406 143.699219 "/>
<path style="fill:none;stroke-width:1.2;stroke-linecap:butt;stroke-linejoin:miter;stroke:rgb(0%,0%,0%);stroke-opacity:1;stroke-miterlimit:10;" d="M 207.316406 143.699219 L 222.582031 156.988281 "/>
<path style="fill:none;stroke-width:1.2;stroke-linecap:butt;stroke-linejoin:miter;stroke:rgb(0%,0%,0%);stroke-opacity:1;stroke-miterlimit:10;" d="M 211.96875 141.433594 L 224.183594 152.066406 "/>
<path style="fill:none;stroke-width:1.2;stroke-linecap:butt;stroke-linejoin:miter;stroke:rgb(0%,0%,0%);stroke-opacity:1;stroke-miterlimit:10;" d="M 211.191406 123.828125 L 207.316406 143.699219 "/>
<path style="fill:none;stroke-width:1.2;stroke-linecap:butt;stroke-linejoin:miter;stroke:rgb(0%,0%,0%);stroke-opacity:1;stroke-miterlimit:10;" d="M 222.582031 156.988281 L 241.730469 150.414062 "/>
<path style="fill:none;stroke-width:1.2;stroke-linecap:butt;stroke-linejoin:miter;stroke:rgb(0%,0%,0%);stroke-opacity:1;stroke-miterlimit:10;" d="M 241.730469 150.414062 L 245.605469 130.542969 "/>
<path style="fill:none;stroke-width:1.2;stroke-linecap:butt;stroke-linejoin:miter;stroke:rgb(0%,0%,0%);stroke-opacity:1;stroke-miterlimit:10;" d="M 237.441406 147.515625 L 240.542969 131.617188 "/>
<path style="fill:none;stroke-width:1.2;stroke-linecap:butt;stroke-linejoin:miter;stroke:rgb(0%,0%,0%);stroke-opacity:1;stroke-miterlimit:10;" d="M 245.605469 130.542969 L 255.175781 127.253906 "/>
<path style="fill:none;stroke-width:1.2;stroke-linecap:butt;stroke-linejoin:miter;stroke:rgb(0%,80%,0%);stroke-opacity:1;stroke-miterlimit:10;" d="M 255.175781 127.253906 L 264.75 123.96875 "/>
<path style="fill:none;stroke-width:1.2;stroke-linecap:butt;stroke-linejoin:miter;stroke:rgb(0%,0%,0%);stroke-opacity:1;stroke-miterlimit:10;" d="M 245.605469 130.542969 L 230.335938 117.253906 "/>
<path style=" stroke:none;fill-rule:nonzero;fill:rgb(100%,100%,100%);fill-opacity:1;" d="M 259.75 118.46875 L 269.75 118.46875 L 269.75 129.46875 L 259.75 129.46875 Z M 259.75 118.46875 "/>
<g style="fill:rgb(0%,80%,0%);fill-opacity:1;">
  <use xlink:href="#glyph0-5" x="259.75" y="127.131836"/>
  <use xlink:href="#glyph0-6" x="266.263672" y="127.131836"/>
</g>
<path style="fill:none;stroke-width:1.2;stroke-linecap:butt;stroke-linejoin:miter;stroke:rgb(0%,0%,0%);stroke-opacity:1;stroke-miterlimit:10;" d="M 230.335938 117.253906 L 211.191406 123.828125 "/>
<path style="fill:none;stroke-width:1.2;stroke-linecap:butt;stroke-linejoin:miter;stroke:rgb(0%,0%,0%);stroke-opacity:1;stroke-miterlimit:10;" d="M 229.96875 122.414062 L 214.652344 127.675781 "/>
<path style="fill:none;stroke-width:1.2;stroke-linecap:butt;stroke-linejoin:miter;stroke:rgb(0%,0%,0%);stroke-opacity:1;stroke-miterlimit:10;" d="M 96.324219 163.292969 L 81.054688 150 "/>
<path style="fill:none;stroke-width:1.2;stroke-linecap:butt;stroke-linejoin:miter;stroke:rgb(0%,0%,0%);stroke-opacity:1;stroke-miterlimit:10;" d="M 81.054688 150 L 84.929688 130.132812 "/>
<path style="fill:none;stroke-width:1.2;stroke-linecap:butt;stroke-linejoin:miter;stroke:rgb(0%,0%,0%);stroke-opacity:1;stroke-miterlimit:10;" d="M 76.765625 147.101562 L 79.867188 131.207031 "/>
<path style="fill:none;stroke-width:1.2;stroke-linecap:butt;stroke-linejoin:miter;stroke:rgb(0%,0%,0%);stroke-opacity:1;stroke-miterlimit:10;" d="M 61.910156 156.578125 L 81.054688 150 "/>
<path style="fill:none;stroke-width:1.2;stroke-linecap:butt;stroke-linejoin:miter;stroke:rgb(0%,0%,0%);stroke-opacity:1;stroke-miterlimit:10;" d="M 84.929688 130.132812 L 69.664062 116.839844 "/>
<path style="fill:none;stroke-width:1.2;stroke-linecap:butt;stroke-linejoin:miter;stroke:rgb(0%,0%,0%);stroke-opacity:1;stroke-miterlimit:10;" d="M 69.664062 116.839844 L 50.519531 123.417969 "/>
<path style="fill:none;stroke-width:1.2;stroke-linecap:butt;stroke-linejoin:miter;stroke:rgb(0%,0%,0%);stroke-opacity:1;stroke-miterlimit:10;" d="M 69.296875 122.003906 L 53.980469 127.265625 "/>
<path style="fill:none;stroke-width:1.2;stroke-linecap:butt;stroke-linejoin:miter;stroke:rgb(0%,0%,0%);stroke-opacity:1;stroke-miterlimit:10;" d="M 50.519531 123.417969 L 42.882812 116.769531 "/>
<path style="fill:none;stroke-width:1.2;stroke-linecap:butt;stroke-linejoin:miter;stroke:rgb(20%,80%,80%);stroke-opacity:1;stroke-miterlimit:10;" d="M 42.882812 116.769531 L 35.25 110.125 "/>
<path style="fill:none;stroke-width:1.2;stroke-linecap:butt;stroke-linejoin:miter;stroke:rgb(0%,0%,0%);stroke-opacity:1;stroke-miterlimit:10;" d="M 50.519531 123.417969 L 46.640625 143.285156 "/>
<path style=" stroke:none;fill-rule:nonzero;fill:rgb(100%,100%,100%);fill-opacity:1;" d="M 29.25 104.625 L 35.25 104.625 L 35.25 115.625 L 29.25 115.625 Z M 29.25 104.625 "/>
<g style="fill:rgb(20%,80%,80%);fill-opacity:1;">
  <use xlink:href="#glyph0-7" x="29.25" y="113.288086"/>
</g>
<path style="fill:none;stroke-width:1.2;stroke-linecap:butt;stroke-linejoin:miter;stroke:rgb(0%,0%,0%);stroke-opacity:1;stroke-miterlimit:10;" d="M 46.640625 143.285156 L 61.910156 156.578125 "/>
<path style="fill:none;stroke-width:1.2;stroke-linecap:butt;stroke-linejoin:miter;stroke:rgb(0%,0%,0%);stroke-opacity:1;stroke-miterlimit:10;" d="M 51.296875 141.023438 L 63.511719 151.65625 "/>
</g>
</svg>

<svg xmlns="http://www.w3.org/2000/svg" xmlns:xlink="http://www.w3.org/1999/xlink" width="300pt" height="300pt" viewBox="0 0 300 300"><defs><symbol overflow="visible"><path d="M.453 1.594v-7.938h4.5v7.938zm.5-.5h3.5v-6.938h-3.5zm0 0"/></symbol><symbol overflow="visible" id="a"><path d="M1.766-3.14v2.406h1.421c.477 0 .833-.098 1.063-.297.227-.197.344-.5.344-.907 0-.407-.117-.708-.344-.907-.23-.195-.586-.297-1.063-.297zm0-2.688v1.97h1.312c.438 0 .758-.08.97-.236.218-.164.327-.414.327-.75 0-.332-.11-.578-.328-.734-.21-.164-.53-.25-.97-.25zM.89-6.562h2.266c.676 0 1.196.14 1.563.42.362.283.546.685.546 1.205 0 .398-.094.714-.282.953-.187.242-.464.39-.828.453.438.092.774.292 1.016.592.238.293.36.657.36 1.094 0 .594-.2 1.055-.595 1.375-.398.314-.964.47-1.703.47H.89zm0 0"/></symbol><symbol overflow="visible" id="b"><path d="M3.703-4.172c-.094-.05-.195-.086-.297-.11-.105-.02-.226-.03-.36-.03-.46 0-.812.152-1.062.453-.242.294-.36.715-.36 1.266V0H.813v-4.922h.813v.766c.176-.3.398-.524.672-.672.27-.145.598-.22.984-.22.064 0 .126.01.19.017.07.01.147.022.233.03zm0 0"/></symbol><symbol overflow="visible" id="c"><path d="M3.547-5.953c-.65 0-1.164.242-1.547.72-.375.48-.563 1.13-.563 1.952 0 .835.188 1.49.563 1.967.383.48.898.72 1.547.72.644 0 1.156-.24 1.53-.72.376-.476.564-1.132.564-1.968 0-.822-.187-1.474-.562-1.954-.375-.477-.887-.72-1.53-.72zm0-.734c.914 0 1.648.312 2.203.937.55.617.828 1.438.828 2.47 0 1.042-.277 1.87-.828 2.483-.555.617-1.29.922-2.203.922-.93 0-1.668-.305-2.22-.922C.774-1.41.5-2.237.5-3.28c0-1.033.273-1.853.828-2.47.55-.625 1.29-.938 2.22-.938zm0 0"/></symbol><symbol overflow="visible" id="d"><path d="M.89-6.563H2.08l2.906 5.485v-5.484h.86V0H4.656L1.75-5.484V0H.89zm0 0"/></symbol><symbol overflow="visible" id="e"><path d="M5.797-6.063v.938c-.305-.27-.625-.473-.97-.61-.335-.144-.686-.218-1.06-.218-.75 0-1.33.23-1.736.687-.397.46-.592 1.12-.592 1.985 0 .866.195 1.526.593 1.983.408.46.986.688 1.736.688.375 0 .726-.066 1.062-.203.344-.132.664-.343.97-.625V-.5c-.314.21-.642.367-.986.47-.343.1-.714.155-1.11.155-.99 0-1.772-.3-2.343-.906C.784-1.396.5-2.228.5-3.28c0-1.052.285-1.88.86-2.486.57-.613 1.35-.92 2.343-.92.395-.002.766.053 1.11.155.35.104.68.26.984.468zm0 0"/></symbol><symbol overflow="visible" id="f"><path d="M.844-6.844h.812V0H.844zm0 0"/></symbol><symbol overflow="visible" id="g"><path d="M.89-6.563h3.766v.75h-2.89v1.938h2.61v.734h-2.61V0H.89zm0 0"/></symbol></defs><g><path fill="#fff" d="M0 0h300v300H0z"/><path d="M165.148 176.72l-7.632-6.646" stroke-width="1.2" stroke="#7f4d1a" stroke-miterlimit="10" fill="none"/><path d="M157.516 170.074l-7.633-6.644" stroke-width="1.2" stroke="#000" stroke-miterlimit="10" fill="none"/><path d="M160.148 171.22h11v11h-11zm0 0" fill="#fff"/><g fill="#7f4d1a"><use xlink:href="#a" x="160.148" y="179.882"/><use xlink:href="#b" x="166.548" y="179.882"/></g><path d="M149.883 163.43l-19.15 6.578M149.883 163.43l3.875-19.868M145.594 160.53l3.1-15.893M128.398 169.55l-1.937 9.934" stroke-width="1.2" stroke="#000" stroke-miterlimit="10" fill="none"/><path d="M126.46 179.484l-1.937 9.934" stroke-width="1.2" stroke="#f00" stroke-miterlimit="10" fill="none"/><path d="M133.074 170.46l-1.937 9.935" stroke-width="1.2" stroke="#000" stroke-miterlimit="10" fill="none"/><path d="M131.137 180.395l-1.942 9.937" stroke-width="1.2" stroke="#f00" stroke-miterlimit="10" fill="none"/><path d="M130.734 170.008l-7.632-6.65" stroke-width="1.2" stroke="#000" stroke-miterlimit="10" fill="none"/><path d="M123.102 163.36l-7.633-6.645" stroke-width="1.2" stroke="#00f" stroke-miterlimit="10" fill="none"/><path d="M122.86 184.375h8v11h-8zm0 0" fill="#fff"/><use xlink:href="#c" x="122.859" y="193.038" fill="#f00"/><path d="M115.47 156.715l1.936-9.934" stroke-width="1.2" stroke="#00f" stroke-miterlimit="10" fill="none"/><path d="M117.406 146.78l1.938-9.932" stroke-width="1.2" stroke="#000" stroke-miterlimit="10" fill="none"/><path d="M115.47 156.715l-9.575 3.29" stroke-width="1.2" stroke="#00f" stroke-miterlimit="10" fill="none"/><path d="M105.895 160.004l-9.57 3.29" stroke-width="1.2" stroke="#000" stroke-miterlimit="10" fill="none"/><path d="M112.47 151.215h7v11h-7zm0 0" fill="#fff"/><use xlink:href="#d" x="112.469" y="159.878" fill="#00f"/><path d="M119.344 136.848l19.144-6.578M122.805 140.69l15.316-5.26M138.488 130.27l15.27 13.292M153.758 143.563l9.57-3.29" stroke-width="1.2" stroke="#000" stroke-miterlimit="10" fill="none"/><path d="M163.328 140.273l9.574-3.29M172.902 136.984l7.633 6.645" stroke-width="1.2" stroke="#f00" stroke-miterlimit="10" fill="none"/><path d="M180.535 143.63l7.637 6.643" stroke-width="1.2" stroke="#000" stroke-miterlimit="10" fill="none"/><path d="M168.902 131.484h8v11h-8zm0 0" fill="#fff"/><use xlink:href="#c" x="168.902" y="140.147" fill="#f00"/><path d="M188.172 150.273l19.144-6.574M207.316 143.7l15.266 13.288M211.97 141.434l12.214 10.632M211.19 123.828l-3.874 19.87M222.582 156.988l19.148-6.574M241.73 150.414l3.875-19.87M237.44 147.516l3.103-15.9M245.605 130.543l9.57-3.29" stroke-width="1.2" stroke="#000" stroke-miterlimit="10" fill="none"/><path d="M255.176 127.254l9.574-3.285" stroke-width="1.2" stroke="#0c0" stroke-miterlimit="10" fill="none"/><path d="M245.605 130.543l-15.27-13.29" stroke-width="1.2" stroke="#000" stroke-miterlimit="10" fill="none"/><path d="M259.75 118.47h10v11h-10zm0 0" fill="#fff"/><g fill="#0c0"><use xlink:href="#e" x="259.75" y="127.132"/><use xlink:href="#f" x="266.264" y="127.132"/></g><path d="M230.336 117.254l-19.145 6.574M229.97 122.414l-15.318 5.262M96.324 163.293L81.054 150M81.055 150l3.875-19.867M76.766 147.102l3.1-15.895M61.91 156.578L81.055 150M84.93 130.133L69.664 116.84M69.664 116.84l-19.144 6.578M69.297 122.004l-15.317 5.262M50.52 123.418l-7.637-6.648" stroke-width="1.2" stroke="#000" stroke-miterlimit="10" fill="none"/><path d="M42.883 116.77l-7.633-6.645" stroke-width="1.2" stroke="#3cc" stroke-miterlimit="10" fill="none"/><path d="M50.52 123.418l-3.88 19.867" stroke-width="1.2" stroke="#000" stroke-miterlimit="10" fill="none"/><path d="M29.25 104.625h6v11h-6zm0 0" fill="#fff"/><use xlink:href="#g" x="29.25" y="113.288" fill="#3cc"/><path d="M46.64 143.285l15.27 13.293M51.297 141.023l12.215 10.633" stroke-width="1.2" stroke="#000" stroke-miterlimit="10" fill="none"/></g></svg>
